X:1350
T:Belgian Waltz,1st part. JNu.18
M:3/8
L:1/8
Q:30
S:James Nuttall MS,c1830?,Rossendale,East Lancs.
R:Waltz
O:England
A:East Lancashire
Z:vmp.Manchester Morris Men
K:G
"primo"d/c/|Bg/f/g/d/|B2c/B/|ca/^g/a/f/|=gdd/c/|!
Bg/f/g/d/|B2c/B/|ca/^g/a/f/|=g2::!
A/B/|ccc|Aa/f/d/c/|Bdd|d/g/dA/B/|!
ccc|ca/f/d/c/|B/g/b/g/f/a/|g2:|]


